X: 175
M: C|
L: 1/8
K: G
|:\
d2d2 g2g2 | agfe a4 | a2gf e2d2 | ^cdec A4 |\
d2d2 e2e2 | f2ed e4 | a2gf e2fg | f2e2 "^D.C."d4 |]

